X:1
T:Christmas Eve, CM
T:Peder Knudsen, 1859
T:Christmas Eve, CM
T:Public Domain
C:Peder Knudsen, 1859
Z:Public Domain
%%score ( 1 2 ) ( 3 4 )
L:1/8
M:none
K:A
V:1 treble 
V:2 treble 
V:3 bass 
V:4 bass 
V:1
 E | [CA]2 [CA](c>B)[EA] | [EG]2 [CA] [B,B]2 E | [EB]2 [Ac](d>c)[GB] | [Ec]3- [Ec]2 E | %5
 [CA]2 [CA](c>B)[EA] | [EG]2 [DF] [Fd]2 [FB] | [EA]2 [EA](G>F)[DG] | [CA]4- [CA]3 |] %9
V:2
 E | x3 E2 x | x5 E | x3 F2 x | x6 | x3 E2 x | x6 | x3 D2 x | x7 |] %9
V:3
 E, | [A,,E,]2 [A,,E,] [A,,A,]2 [C,A,] | [E,B,]2 [E,A,] [E,G,]2 [E,G,] | %3
 [D,G,]2 [C,A,] [B,,B,]2 [E,B,] | A,3- A,2 E, | [A,,E,]2 [A,,E,] [A,,A,]2 [C,A,] | %6
 [E,A,]2 [D,A,] [B,,B,]2 [D,B,] | [E,C]2 [E,C] [E,B,]2 [E,B,] | [A,,A,]4- [A,,A,]3 |] %9
V:4
 E, | x6 | x6 | x6 | x6 | x6 | x6 | x6 | x7 |] %9

